X: 7689
T: Coleraine, The
R: jig
M: 6/8
K: Bminor
|:F|FBB Bcd|cff f2 e|dBB Bcd|cAF F2 E|
FBB Bcd|cff f2 e|dcB ^ABc|1 B3 B2:|2 B3 ABc||
|:d3 dcB|caa a2 ^a|bfe dcB|^ABc F^G^A|
B2B cBc|def gfe|dcB ^ABc|1 B3 ABc:|2 B3 B2||

